X:1
T:Scattering Precious Seed
T:George Crawford Hugg (1848-1907)
T:Scattering Precious Seed
T:Public Domain
T:Public Domain
T:Public Domain
C:George Crawford Hugg (1848-1907)
Z:Public Domain
%%score ( 1 2 ) ( 3 4 )
L:1/8
M:4/4
K:Ab
V:1 treble 
V:2 treble 
V:3 bass 
V:4 bass 
V:1
 (3[CE][CE][CE] [DF]>[CE] [CA]2 [Ec]>[DB] | [CA]4 ([CE]2 (3CD=D) | %2
w: 1.~Scat- ter- ing pre- cious seed by the|way- side, * * *|
w: 2.~Scat- ter- ing pre- cious seed for the|grow- ing * * *|
w: 3.~Scat- ter- ing pre- cious seed, doubt- ing|nev- er, * * *|
 (3[CE][CE][CE] [DF]>[CE] [CA]2 [Ec]>[EA] | [EB]4 [Ee]2 z2 | %4
w: Scat- ter- ing pre- cious seed by the|hill- side;|
w: Scat- ter- ing pre- cious seed, free- ly|sow- ing,|
w: Scat- ter- ing pre- cious seed, trust- ing|ev- er;|
 (3[CE][CE][CE] [DF]>[CE] [CA]2 [Ec]>[EB] | [FA]4 ([DF]2 (3AGF) | (3[DE][DE][DE] [DG]>[CA] | %7
w: Scat- ter- ing pre- cious seed o’er the|field, wide, * * *|Scat- ter- ing pre- cious|
w: Scat- ter- ing pre- cious seed, trust- ing,|know- ing, * * *|Sure- ly the Lord will|
w: Sow- ing the word with prayer and en-|deav- or, * * *|Trust- ing the Lord for|
 [DB]2 [Ec]>[DB] | [CA]6 z2 ||"^Refrain" [CE]4 [CA]2 (3(EA)[Ec] | [DB]4 ([DF]2 (3AGF) | %11
w: seed by the|way.|||
w: send it the|rain.|Sow- ing in * the|ing, Sow- * * *|
w: growth and for|yield.|||
 [EG]4 [DE]2 (3([GB][Bd])[df] | [ce]4 ([Ac]2 (3AGF) | [CE]4 [CA]2 (3(EA)[Ec] | %14
w: |||
w: ing at the * noon-|tide; Sow- * * *|ing in the * even-|
w: |||
 [DB]4 ([DF]2 (3AGF) | (3[DE][DE][DE] [DG]>[CA] [DB]2 [Ec]>[DB] | (C2 D>D C4) |] %17
w: |||
w: Sow- ing * * *|the pre- cious seed by the way. *||
w: |||
V:2
 x8 | x8 | x8 | x8 | x8 | x8 | x4 | x4 | x8 || x6 C2 | x8 | x8 | x8 | x6 C2 | x8 | x8 | A8 |] %17
w: |||||||||||||||||
w: |||||||||morn-||||ing,||||
V:3
 (3[A,,A,][A,,A,][A,,A,] [A,,A,]>[A,,A,] [A,,A,]2 [A,,A,]>[A,,E,] | [A,,E,]4 [A,,A,]2 z2 | %2
w: ~ ~ ~ ~ ~ ~ ~ ~|~ ~|
 (3[A,,A,][A,,A,][A,,A,] [A,,A,]>[A,,A,] [A,,A,]2 [A,,A,]>[C,A,] | [E,G,]4 ([E,G,]2 (3E,F,G,) | %4
w: ~ ~ ~ ~ ~ ~ ~ ~|~ ~ * * *|
 (3[A,,A,][A,,A,][A,,A,] [A,,A,]>[A,,A,] [A,,A,]2 [A,,A,]>[C,A,] | [D,A,]4 [D,A,]2 z2 | %6
w: ~ ~ ~ ~ ~ ~ ~ ~|~ ~|
 (3[E,G,][E,G,][E,G,] [E,B,]>[E,A,] | [E,G,]2 [E,G,]>E, | [A,,E,]6 z2 || %9
w: ~ ~ ~ ~ ~|~ ~ ~|Sow-|
 (3[A,,A,][A,,A,][A,,A,] [A,,A,]>[A,,A,] [A,,A,]2 z2 | %10
w: ing the pre- cious seed, Sow-|
 (3[D,F,][D,F,][D,F,] [D,F,]>[D,F,] [D,A,]2 z2 | (3[E,D][E,D][E,D] [E,D]>[E,D] [E,G,]2 [E,G,]2 | %12
w: ing the pre- cious seed, Sow-|ing the seed at noon- tide, Sow-|
 (3A,A,[A,C] [A,E]>[A,E] [A,E]2 z2 | (3[A,,A,][A,,A,][A,,A,] [A,,A,]>[A,,A,] [A,,A,]2 z2 | %14
w: ing the pre- cious seed; Sow-|pre- cious seed, Sow- ing the|
 (3[D,F,][D,F,][D,F,] [D,F,]>[D,F,] [D,A,]2 z2 | %15
w: pre- cious seed, * * *|
 (3[E,G,][E,G,][E,G,] [E,B,]>[E,A,] [E,G,]2 [E,G,]>E, | E,2 F,>F, E,4 |] %17
w: ||
V:4
 x8 | x8 | x8 | x8 | x8 | x8 | x4 | x7/2 E,/ | x8 || x8 | x8 | x8 | A,A, x6 | x8 | x8 | x15/2 E,/ | %16
w: |||||||~|||||ing the||||
 A,,8 |] %17
w: |

